img/calendar.svg

<svg fill="none" height="16" viewBox="0 0 16 16" width="16" xmlns="http://www.w3.org/2000/svg"><g fill="#008699"><path d="m13.0948 2.75372h-.3396v-.88427c0-.48632-.384-.86945-.8713-.86945-.4874 0-.8713.38313-.8713.86945v.88427h-2.14144v-.88427c0-.48632-.38395-.86945-.87129-.86945-.48735 0-.87129.38313-.87129.86945v.88427h-2.14134v-.88427c0-.48632-.38394-.86945-.87129-.86945-.48734 0-.87129.38313-.87129.86945v.88427h-.33963c-1.04859 0-1.90503.85474-1.90503 1.90101v8.44427c0 1.0464.85655 1.901 1.90503 1.901h10.18997c1.0486 0 1.905-.8547 1.905-1.901v-8.44427c0-1.04627-.8566-1.90101-1.9052-1.90101zm0 10.97898h-10.18993c-.35446 0-.63498-.28-.63498-.6336l-.0001-6.44004h11.46001v6.44004c.0001.3537-.2805.6336-.635.6336z"/><path d="m5.59245 7.92651h-1.75742c-.13289 0-.25105.11791-.25105.25052v1.11998c0 .13261.11816.25051.25105.25051h1.75742c.13289 0 .25105-.11791.25105-.25051v-1.11998c0-.13261-.11806-.25052-.25105-.25052z"/><path d="m8.88596 7.92651h-1.77225c-.13288 0-.25104.11791-.25104.25052v1.11998c0 .13261.11816.25051.25104.25051l1.77225.00011c.13289 0 .25104-.11791.25104-.25052v-1.11998c0-.13271-.11815-.25062-.25104-.25062z"/><path d="m12.1794 7.92651h-1.7722c-.1329 0-.251.11791-.251.25052v1.11998c0 .13261.1181.25051.251.25051h1.7574c.1329 0 .2511-.11791.2511-.25051v-1.11998c.0147-.13261-.1035-.25052-.2363-.25052z"/><path d="m5.59245 10.8295h-1.75742c-.13289 0-.25105.1179-.25105.2505v1.12c0 .1326.11816.2505.25105.2505h1.75742c.13289 0 .25105-.1179.25105-.2505v-1.12c0-.1326-.11806-.2505-.25105-.2505z"/><path d="m8.88596 10.8295h-1.77225c-.13288 0-.25104.1179-.25104.2505v1.12c0 .1326.11816.2505.25104.2505l1.77225.0001c.13289 0 .25104-.1179.25104-.2505v-1.12c0-.1327-.11815-.2506-.25104-.2506z"/><path d="m12.1794 10.8295h-1.7722c-.1329 0-.251.1179-.251.2505v1.12c0 .1326.1181.2505.251.2505h1.7574c.1329 0 .2511-.1179.2511-.2505v-1.12c.0147-.1326-.1035-.2505-.2363-.2505z"/></g></svg>

<svg width="16" height="16" viewBox="0 0 16 16" fill="none" xmlns="http://www.w3.org/2000/svg">
<path d="M13.0948 2.75372H12.7552V1.86945C12.7552 1.38313 12.3712 1 11.8839 1C11.3965 1 11.0126 1.38313 11.0126 1.86945V2.75372H8.87116V1.86945C8.87116 1.38313 8.48721 1 7.99987 1C7.51252 1 7.12858 1.38313 7.12858 1.86945V2.75372H4.98724V1.86945C4.98724 1.38313 4.6033 1 4.11595 1C3.62861 1 3.24466 1.38313 3.24466 1.86945V2.75372H2.90503C1.85644 2.75372 1 3.60846 1 4.65473V13.099C1 14.1454 1.85655 15 2.90503 15H13.095C14.1436 15 15 14.1453 15 13.099V4.65473C15 3.60846 14.1434 2.75372 13.0948 2.75372ZM13.0948 13.7327H2.90487C2.55041 13.7327 2.26989 13.4527 2.26989 13.0991L2.26979 6.65906H13.7298V13.0991C13.7299 13.4528 13.4493 13.7327 13.0948 13.7327Z" fill="#008699"/>
<path d="M5.59245 7.92651H3.83503C3.70214 7.92651 3.58398 8.04442 3.58398 8.17703V9.29701C3.58398 9.42962 3.70214 9.54752 3.83503 9.54752H5.59245C5.72534 9.54752 5.8435 9.42961 5.8435 9.29701V8.17703C5.8435 8.04442 5.72544 7.92651 5.59245 7.92651Z" fill="#008699"/>
<path d="M8.88596 7.92651H7.11371C6.98083 7.92651 6.86267 8.04442 6.86267 8.17703V9.29701C6.86267 9.42962 6.98083 9.54752 7.11371 9.54752L8.88596 9.54763C9.01885 9.54763 9.137 9.42972 9.137 9.29711V8.17713C9.137 8.04442 9.01885 7.92651 8.88596 7.92651Z" fill="#008699"/>
<path d="M12.1794 7.92651H10.4072C10.2743 7.92651 10.1562 8.04442 10.1562 8.17703V9.29701C10.1562 9.42962 10.2743 9.54752 10.4072 9.54752H12.1646C12.2975 9.54752 12.4157 9.42961 12.4157 9.29701V8.17703C12.4304 8.04442 12.3122 7.92651 12.1794 7.92651Z" fill="#008699"/>
<path d="M5.59245 10.8295H3.83503C3.70214 10.8295 3.58398 10.9474 3.58398 11.08V12.2C3.58398 12.3326 3.70214 12.4505 3.83503 12.4505H5.59245C5.72534 12.4505 5.8435 12.3326 5.8435 12.2V11.08C5.8435 10.9474 5.72544 10.8295 5.59245 10.8295Z" fill="#008699"/>
<path d="M8.88596 10.8295H7.11371C6.98083 10.8295 6.86267 10.9474 6.86267 11.08V12.2C6.86267 12.3326 6.98083 12.4505 7.11371 12.4505L8.88596 12.4506C9.01885 12.4506 9.137 12.3327 9.137 12.2001V11.0801C9.137 10.9474 9.01885 10.8295 8.88596 10.8295Z" fill="#008699"/>
<path d="M12.1794 10.8295H10.4072C10.2743 10.8295 10.1562 10.9474 10.1562 11.08V12.2C10.1562 12.3326 10.2743 12.4505 10.4072 12.4505H12.1646C12.2975 12.4505 12.4157 12.3326 12.4157 12.2V11.08C12.4304 10.9474 12.3122 10.8295 12.1794 10.8295Z" fill="#008699"/>
</svg>
